Catalina-dark/actions/16/edit-clear-rtl.svg

<?xml version="1.0" encoding="UTF-8" standalone="no"?>
<svg
   xmlns:dc="http://purl.org/dc/elements/1.1/"
   xmlns:cc="http://creativecommons.org/ns#"
   xmlns:rdf="http://www.w3.org/1999/02/22-rdf-syntax-ns#"
   xmlns:svg="http://www.w3.org/2000/svg"
   xmlns="http://www.w3.org/2000/svg"
   xmlns:sodipodi="http://sodipodi.sourceforge.net/DTD/sodipodi-0.dtd"
   xmlns:inkscape="http://www.inkscape.org/namespaces/inkscape"
   width="16"
   height="16"
   viewBox="0 0 16 16"
   version="1.1"
   id="svg7"
   sodipodi:docname="edit-clear-rtl.svg"
   inkscape:version="0.92.4 5da689c313, 2019-01-14">
  <metadata
     id="metadata11">
    <rdf:RDF>
      <cc:Work
         rdf:about="">
        <dc:format>image/svg+xml</dc:format>
        <dc:type
           rdf:resource="http://purl.org/dc/dcmitype/StillImage" />
      </cc:Work>
    </rdf:RDF>
  </metadata>
  <sodipodi:namedview
     pagecolor="#ffffff"
     bordercolor="#666666"
     borderopacity="1"
     objecttolerance="10"
     gridtolerance="10"
     guidetolerance="10"
     inkscape:pageopacity="0"
     inkscape:pageshadow="2"
     inkscape:window-width="640"
     inkscape:window-height="480"
     id="namedview9"
     showgrid="false"
     inkscape:zoom="14.75"
     inkscape:cx="6.8135593"
     inkscape:cy="8"
     inkscape:window-x="0"
     inkscape:window-y="26"
     inkscape:window-maximized="0"
     inkscape:current-layer="svg7" />
  <defs
     id="defs3">
    <style
       id="current-color-scheme"
       type="text/css">
   .ColorScheme-Text { color:#5c616c; } .ColorScheme-Highlight { color:#5294e2; }
  </style>
  </defs>
  <path
     style="fill:#f1f6f8;fill-opacity:0.8509804"
     class="ColorScheme-Text"
     d="M 0 2.0039062 L 0 14.003906 L 11 14.003906 L 16 8.0039062 L 11 2.0039062 L 0 2.0039062 z M 3.0078125 5.0039062 L 4.0078125 5.0039062 C 4.2878125 5.0039062 4.5370312 5.115875 4.7070312 5.296875 L 6 6.5898438 L 7.2929688 5.296875 C 7.4737187 5.116125 7.723 5.0039062 8 5.0039062 L 9 5.0039062 L 9.0039062 6.0039062 C 9.0039062 6.2809063 8.893125 6.5299375 8.703125 6.7109375 L 7.4101562 8.0039062 L 8.7109375 9.296875 C 8.8916875 9.477625 9.0039062 9.7269062 9.0039062 10.003906 L 9.0039062 11.003906 L 8.0039062 11.003906 C 7.7239063 11.003906 7.4727344 10.891937 7.3027344 10.710938 L 6.0097656 9.4179688 L 4.7167969 10.710938 C 4.5360469 10.891687 4.2867656 11.003906 4.0097656 11.003906 L 3.0097656 11.003906 L 3.0097656 10.003906 C 3.0097656 9.7269062 3.1207812 9.477875 3.3007812 9.296875 L 4.59375 8.0039062 L 3.3007812 6.7109375 C 3.1200312 6.5301875 3.0078125 6.2809063 3.0078125 6.0039062 L 3.0078125 5.0039062 z"
     id="path5" />
</svg>

<svg width="16" height="16" version="1.1" viewBox="0 0 16 16" xmlns="http://www.w3.org/2000/svg">
<defs>
<style id="current-color-scheme" type="text/css">.ColorScheme-Text { color:#5c616c; } .ColorScheme-Highlight { color:#5294e2; }</style>
</defs>
<path class="ColorScheme-Text" d="m0 2.0039v12h11l5-6-5-6h-11zm3.0078 3h1c0.28 0 0.52922 0.11197 0.69922 0.29297l1.293 1.293 1.293-1.293c0.18075-0.18075 0.43003-0.29297 0.70703-0.29297h1l0.0039062 1c0 0.277-0.11078 0.52603-0.30078 0.70703l-1.293 1.293 1.3008 1.293c0.18075 0.18075 0.29297 0.43003 0.29297 0.70703v1h-1c-0.28 0-0.53117-0.11197-0.70117-0.29297l-1.293-1.293-1.293 1.293c-0.18075 0.18075-0.43003 0.29297-0.70703 0.29297h-1v-1c0-0.277 0.11102-0.52603 0.29102-0.70703l1.293-1.293-1.293-1.293c-0.18075-0.18075-0.29297-0.43003-0.29297-0.70703v-1z" fill="#dedede" fill-opacity=".85098"/>
</svg>
